teeny/solid/ms-powerpoint.svg

<svg width="15" height="15" viewBox="0 0 15 15" fill="none" xmlns="http://www.w3.org/2000/svg">
<path fill-rule="evenodd" clip-rule="evenodd" d="M5 5H2V10H3V9H5C6.10457 9 7 8.10457 7 7C7 5.89543 6.10457 5 5 5ZM5 8H3V6H5C5.55228 6 6 6.44772 6 7C6 7.55228 5.55228 8 5 8Z" fill="black"/>
<path fill-rule="evenodd" clip-rule="evenodd" d="M7.49983 0C5.0456 0 2.86687 1.17924 1.49932 3C0.671208 3.00037 0 3.6718 0 4.5V10.5C0 11.3282 0.671206 11.9996 1.49932 12C2.86687 13.8208 5.0456 15 7.49983 15C11.642 15 14.9998 11.6421 14.9998 7.5C14.9998 3.35786 11.642 0 7.49983 0ZM1 4.5C1 4.22386 1.22386 4 1.5 4H7.5C7.77165 4 7.99269 4.21663 7.99982 4.48655V10.5134C7.99269 10.7834 7.77165 11 7.5 11H1.5C1.22386 11 1 10.7761 1 10.5V4.5Z" fill="black"/>
</svg>

<svg viewBox="0 0 15 15" xmlns="http://www.w3.org/2000/svg"><g fill-rule="evenodd"><path d="M5 5H2v5h1V9h2c1.1 0 2-.9 2-2 0-1.11-.9-2-2-2Zm0 3H3V6h2c.55 0 1 .44 1 1 0 .55-.45 1-1 1Z"/><path d="M7.49 0C5.03 0 2.85 1.17 1.48 3c-.83 0-1.5.67-1.5 1.5v6c0 .82.67 1.49 1.49 1.5 1.36 1.82 3.54 3 6 3 4.14 0 7.49-3.36 7.49-7.5 0-4.15-3.36-7.5-7.5-7.5ZM.99 4.5c0-.28.22-.5.5-.5h6c.27 0 .49.21.49.48v6.02c-.01.27-.23.48-.5.48h-6c-.28 0-.5-.23-.5-.5v-6Z"/></g></svg>
